images/icons/editor-latex.svg

<svg width="16" height="16" viewBox="0 0 16 16" xmlns="http://www.w3.org/2000/svg"
  aria-hidden="true" focusable="false">
  <g fill-rule="evenodd">
    <rect fill="none" x="0" y="0" width="16" height="16"></rect>
    <path
      d="M13.3918 16C13.5501 16 13.691 15.9638 13.8146 15.8915C13.9382 15.8192 14 15.7368 14 15.6443V15.6443V13.8655C14 13.7672 13.9382 13.6833 13.8146 13.6139C13.691 13.5445 13.5501 13.5098 13.3918 13.5098V13.5098H6.85043C6.71199 13.5098 6.62299 13.4823 6.58344 13.4273C6.54388 13.3724 6.54388 13.3218 6.58344 13.2755V13.2755L12.1162 8.17354C12.2744 8.03471 12.3387 7.90889 12.309 7.7961C12.2794 7.6833 12.2151 7.57484 12.1162 7.47072V7.47072L6.8801 2.70716C6.84054 2.66088 6.83807 2.61316 6.87268 2.56399C6.90729 2.51482 7.00371 2.49024 7.16193 2.49024V2.49024H13.3325C13.4907 2.49024 13.6292 2.45409 13.7478 2.38178C13.8665 2.30947 13.9258 2.22704 13.9258 2.13449V2.13449V0.355748C13.9258 0.263196 13.8665 0.180766 13.7478 0.10846C13.6292 0.0361533 13.4907 0 13.3325 0V0H2.90482C2.7466 0 2.60569 0.0361533 2.48208 0.10846C2.35847 0.180766 2.29666 0.263196 2.29666 0.355748V0.355748V2.29935C2.29666 2.42661 2.33375 2.53507 2.40791 2.62473C2.48208 2.71439 2.53894 2.78236 2.57849 2.82863V2.82863L7.88875 7.64425C7.92831 7.69053 7.95303 7.74982 7.96292 7.82213C7.97281 7.89443 7.94808 7.95951 7.88875 8.01735V8.01735L2.267 13.1714C2.22744 13.2176 2.17305 13.2842 2.10383 13.3709C2.03461 13.4577 2 13.5676 2 13.7007V13.7007V15.6443C2 15.7368 2.0618 15.8192 2.18541 15.8915C2.30902 15.9638 2.44994 16 2.60816 16V16H13.3918Z"
      fill="currentColor" />
  </g>
</svg>

<svg xmlns="http://www.w3.org/2000/svg" width="16" height="16" viewBox="0 0 16 16" aria-hidden="true" focusable="false"><g fill-rule="evenodd"><rect fill="none" stroke="none" x="0" y="0" width="16" height="16"></rect><path fill="currentColor" stroke="none" d="M13.392 16c.158 0 .299-.036.423-.108.123-.073.185-.155.185-.248v-1.778c0-.099-.062-.183-.185-.252a.848.848 0 00-.423-.104H6.85c-.138 0-.227-.028-.267-.083-.04-.055-.04-.105 0-.152l5.533-5.101c.158-.14.223-.265.193-.378a.755.755 0 00-.193-.325L6.88 2.707c-.04-.046-.042-.094-.007-.143.034-.05.13-.074.289-.074h6.17a.782.782 0 00.416-.108c.119-.073.178-.155.178-.248V.356c0-.093-.06-.175-.178-.248A.782.782 0 0013.333 0H2.905c-.158 0-.3.036-.423.108-.124.073-.185.155-.185.248v1.943c0 .128.037.236.11.326l.171.204 5.31 4.815c.04.047.065.106.075.178a.221.221 0 01-.074.195l-5.622 5.154c-.04.047-.094.113-.163.2A.512.512 0 002 13.7v1.943c0 .093.062.175.185.248a.822.822 0 00.423.108h10.784z"></path></g></svg>
